packages/core/src/svgs/cvc.svg

<svg width="24" height="24" viewBox="0 0 24 24" fill="none" xmlns="http://www.w3.org/2000/svg">
<g clip-path="url(#clip0_31_8925)">
<path d="M0 0H24V24H0V0Z" fill="#2F0D30"/>
<path d="M13.2128 17.5716C15.3771 17.5716 17.3014 15.8316 17.5714 13.7445V13.7145H18.8571C18.7193 15.1181 18.0659 16.4208 17.0234 17.3707C15.9809 18.3206 14.6232 18.8503 13.2128 18.8574H10.8128C7.68425 18.8574 5.14282 16.3202 5.14282 13.2002V10.8002C5.14282 7.68021 7.68854 5.14307 10.8128 5.14307H13.2128C14.6232 5.1501 15.9809 5.67977 17.0234 6.62968C18.0659 7.57959 18.7193 8.88229 18.8571 10.2859H17.5714C17.3014 8.19878 15.3771 6.42878 13.2128 6.42878H10.8128C9.65976 6.45274 8.56039 6.92059 7.74367 7.73491C6.92696 8.54923 6.45588 9.64722 6.42854 10.8002V13.2002C6.42854 15.5402 8.46425 17.5716 10.8128 17.5716H13.2128ZM12 9.42878C12.7071 9.42878 13.2857 10.0331 13.2857 10.7788C13.2857 11.3016 13.0028 11.7559 12.5914 11.9788L13.0671 14.1431H10.9328L11.4085 11.9788C11.1957 11.8595 11.019 11.6852 10.8968 11.474C10.7746 11.2629 10.7116 11.0227 10.7143 10.7788C10.7062 10.4294 10.837 10.0911 11.078 9.838C11.3191 9.58493 11.6506 9.43777 12 9.42878Z" fill="#FF6B4D"/>
</g>
<defs>
<clipPath id="clip0_31_8925">
<rect width="24" height="24" fill="white"/>
</clipPath>
</defs>
</svg>

<svg xmlns="http://www.w3.org/2000/svg" width="24" height="24" fill="none" viewBox="0 0 24 24"><g clip-path="url(#a)"><path fill="#2F0D30" d="M0 0h24v24H0z"/><path fill="#FF6B4D" d="M13.213 17.572c2.164 0 4.088-1.74 4.358-3.827v-.03h1.286a5.7 5.7 0 0 1-5.644 5.142h-2.4c-3.129 0-5.67-2.537-5.67-5.657v-2.4c0-3.12 2.546-5.657 5.67-5.657h2.4a5.7 5.7 0 0 1 5.644 5.143h-1.286c-.27-2.087-2.194-3.857-4.358-3.857h-2.4A4.48 4.48 0 0 0 6.429 10.8v2.4c0 2.34 2.035 4.372 4.384 4.372zM12 9.429c.707 0 1.286.604 1.286 1.35 0 .523-.283.977-.695 1.2l.476 2.164h-2.134l.476-2.164a1.36 1.36 0 0 1-.695-1.2A1.32 1.32 0 0 1 12 9.429"/></g><defs><clipPath id="a"><path fill="#fff" d="M0 0h24v24H0z"/></clipPath></defs></svg>
